common/app/assets/images/global/tool.svg

<svg xmlns="http://www.w3.org/2000/svg" width="13" height="13"><path fill="#333" d="M7.86 7.227c.165.165.45.165.614 0l.571-.572 3.715-3.712c.165-.165.165-.442 0-.606l-1.229-1.23c-.156-.165-.441-.165-.606 0l-3.713 3.713-.571.572c-.088.087-.13.189-.13.311 0 .112.042.217.13.303l.303.304-1.506 1.506-2.435 2.433-1.255.138-.871 2.008.598.604 2.005-.88.138-1.255 2.433-2.432 1.505-1.506.304.301zm-3.107-.094l.069.068.953-.942c-.088-.173-.13-.364-.13-.555 0-.347.138-.675.38-.926l1.273-1.273c-.036-.883-.381-1.757-1.058-2.44-.838-.833-1.981-1.179-3.081-1.032l2.069 2.061-.667 2.458-2.459.667-2.069-2.07c-.147 1.092.2 2.243 1.04 3.083.995.995 2.423 1.299 3.68.901zm7.556 2.787l-2.648-2.649-.58.572c-.383.381-.995.484-1.473.25l-.943.953 3.255 3.255.174.199c.666.667 1.749.667 2.406 0 .666-.666.666-1.748 0-2.414l-.191-.166z"/></svg>

<?xml version="1.0" encoding="utf-8"?><!-- Generator: Adobe Illustrator 15.0.2, SVG Export Plug-In . SVG Version: 6.00 Build 0)  --><!DOCTYPE svg PUBLIC "-//W3C//DTD SVG 1.1//EN" "http://www.w3.org/Graphics/SVG/1.1/DTD/svg11.dtd"><svg version="1.1" id="Layer_1" xmlns="http://www.w3.org/2000/svg" xmlns:xlink="http://www.w3.org/1999/xlink" x="0px" y="0px" width="13px" height="13px" viewBox="0 0 13 13" enable-background="new 0 0 13 13" xml:space="preserve"><path fill="#333333" d="M7.86,7.227c0.165,0.165,0.45,0.165,0.614,0l0.571-0.572l3.715-3.712c0.165-0.165,0.165-0.442,0-0.606
	l-1.229-1.23c-0.156-0.165-0.441-0.165-0.606,0L7.212,4.82L6.641,5.392c-0.088,0.087-0.13,0.189-0.13,0.311
	c0,0.112,0.042,0.217,0.13,0.303L6.944,6.31L5.438,7.816l-2.435,2.433l-1.255,0.138l-0.871,2.008l0.598,0.604l2.005-0.88
	l0.138-1.255l2.433-2.432l1.505-1.506L7.86,7.227z M4.753,7.133l0.069,0.068l0.953-0.942C5.687,6.086,5.645,5.895,5.645,5.704
	c0-0.347,0.138-0.675,0.38-0.926l1.273-1.273c-0.036-0.883-0.381-1.757-1.058-2.44C5.402,0.232,4.259-0.114,3.159,0.033l2.069,2.061
	L4.561,4.552L2.102,5.219l-2.069-2.07c-0.147,1.092,0.2,2.243,1.04,3.083C2.068,7.227,3.496,7.531,4.753,7.133z M12.309,9.92
	L9.661,7.271l-0.58,0.572c-0.383,0.381-0.995,0.484-1.473,0.25L6.665,9.046l3.255,3.255c0.052,0.069,0.113,0.139,0.174,0.199
	c0.666,0.667,1.749,0.667,2.406,0c0.666-0.666,0.666-1.748,0-2.414C12.439,10.024,12.378,9.971,12.309,9.92z"></path></svg>
